X: 279
%
U:~=!turn!
T: Kissing Is the Best of A'
C:
O:Scotland
B:Keith Norman MacDonald : "The Skye collection of the best reels & strathspeys extant" : 1887
Z:Ralph Palmer
R:Reel
M:C
L:1/8
K:G
c |: (BG)GB (GB)Gc | BGGB gdec | (BG)GB (GB)Gc | A=FFA c2 BA :: (B/c/d) df (gd)ec | (B/c/d) df g2 gd |
(B/c/d) df (gd)ec | A=FFA c2 BA | (B/c/d) df gdec | (B/c/d) df g2 dg | egdg cgBg | A=FFA c2 BA |]


